packages/design-system/src/icons/assets/cmp_profile_non.svg

<svg width="80" height="80" viewBox="0 0 80 80" fill="none" xmlns="http://www.w3.org/2000/svg">
<rect width="80" height="80" rx="40" fill="white"/>
<path fill-rule="evenodd" clip-rule="evenodd" d="M52.9566 17.7461L45.9786 24.7409V15H33.4183V24.7409L26.6644 17.9706L17.7739 26.8653L24.3384 33.4456H15V39.1969H33.8663C35.0724 39.1969 36.2784 38.9033 37.226 38.1433C39.6209 36.2435 40.0345 32.582 40.0345 25.5527C40.0345 32.582 40.448 36.2435 42.8429 38.1433C43.7905 38.886 45.0138 39.1969 46.2026 39.1969H64.9828V33.601L64.8277 33.4456H55.0413L61.8298 26.6408L52.9394 17.7288L52.9566 17.7461ZM65 40.7858H46.6161C45.8063 40.7858 44.9793 40.9413 44.2385 41.2694C40.603 42.9102 40.0517 46.4335 40.0517 54.6373C40.0517 49.4214 39.2936 45.8636 38.0531 43.6356C37.0365 41.8221 35.0551 40.7858 32.9704 40.7858H15V46.0535H24.7174L17.8084 52.9793L26.6988 61.8912L33.4183 55.1554V65H45.9786V55.1554L53.1116 62.3057H53.1461L62.0021 53.4111L54.6795 46.0708H65V40.8031V40.7858Z" fill="#EFF0F4"/>
</svg>

<svg xmlns="http://www.w3.org/2000/svg" width="80" height="80" fill="none"><rect width="80" height="80" fill="#fff" rx="40"/><path fill="#EFF0F4" fill-rule="evenodd" d="m52.957 17.746-6.978 6.995V15h-12.56v9.74l-6.755-6.77-8.89 8.895 6.564 6.58H15v5.752h18.866c1.206 0 2.412-.294 3.36-1.054 2.395-1.9 2.809-5.561 2.809-12.59 0 7.029.413 10.69 2.808 12.59.947.743 2.17 1.054 3.36 1.054h18.78V33.6l-.155-.155H55.04l6.789-6.805-8.89-8.912zM65 40.786H46.616c-.81 0-1.637.155-2.377.483-3.636 1.641-4.187 5.165-4.187 13.368 0-5.216-.758-8.773-1.999-11.001-1.017-1.814-2.998-2.85-5.083-2.85H15v5.267h9.717l-6.909 6.926 8.89 8.912 6.72-6.736V65h12.56v-9.845l7.134 7.15h.034l8.856-8.894-7.323-7.34H65v-5.285" clip-rule="evenodd"/></svg>
